X:1
T:Title
%%score { 1 | ( 2 3 ) }
L:1/8
Q:1/4=90
M:6/8
K:Eb
V:1 treble nm="Grand Piano"
V:2 bass 
V:3 bass 
V:1
 EFG [GB]2 G | G3 E2 E | [DF]2 [DF] [FA]2 [EG] |[M:5/8] [DF]-[DF]- [DF]3 |[M:1/8] [DF] | %5
w: W.~H.~Doane * * * *|||||
[M:3/4] GF [G,E] [EGB]2 [EAc] | [EGB]2 [B,FA] [B,EG]2 [B,EG] | [B,DF]2 [B,FA] [B,EG]2 [A,DF] | %8
w: |||
[M:5/8] [G,E]-[G,E]- [G,E]3 |[M:3/16] [EGB]3/2 |[M:3/4] [B,EG][B,FA] [B,GB][EG] [FA][GB] | %11
w: |||
 [EAc]3 [GB]2 [EG] | [DF][EG] [FA][DF] G[DFA] |[M:5/8] [EGB]3 [B,EG]2 |[M:1/8] [EGB] | %15
w: ||||
[M:3/4] c=B c e2 c | [GB][_G=A] [=GB] G2 E | F2 A [EG]2 [DF] |[M:5/8] E-E- E3 |] %19
w: ||||
V:2
 [E,G,][E,A,E][E,B,E] [E,E]2 [E,B,E] | [E,B,E]3 [E,G,]2 [E,G,] | %2
 [B,,B,]2 [B,,B,] [B,,B,]2 [B,,B,] |[M:5/8] [B,,B,]-[B,,B,]- [B,,B,]3 |[M:1/8] [B,,B,] | %5
[M:3/4] .B,2 z2 z2 | E,2 E, E,2 E, | B,,2 B,, B,,2 B,, |[M:5/8] E,-E,- E,3 |[M:3/16] E,3/2 | %10
[M:3/4] E,E, E, [E,B,]2 [E,E] | [A,,A,]3 [E,E]2 [E,B,] | [B,,B,][B,,B,] .[B,,B,]2 EB,, | %13
[M:5/8] E,3 E,2 |[M:1/8] E, |[M:3/4][K:treble] [A,EA][A,EA] [A,EA] [A,CA]2 [A,EA] | %16
 [E,E][E,E] [E,E] [E,B,E]2 [G,B,] | [B,D]2 [B,F][K:bass] [B,,B,]2 [B,,A,] | %18
[M:5/8] [E,G,]-[E,G,]- [E,G,]3 |] %19
V:3
 x6 | x6 | x6 |[M:5/8] x5 |[M:1/8] x |[M:3/4] [E,E]-[E,A,E] E, E,2 E, | x6 | x6 |[M:5/8] x5 | %9
[M:3/16] x3/2 |[M:3/4] x6 | x6 | z2 z .[B,,B,]3 |[M:5/8] x5 |[M:1/8] x |[M:3/4][K:treble] x6 | x6 | %17
 x3[K:bass] x3 |[M:5/8] x5 |] %19

